images/portal/5819.svg

<?xml version="1.0" standalone="no"?><!DOCTYPE svg PUBLIC "-//W3C//DTD SVG 1.1//EN" "http://www.w3.org/Graphics/SVG/1.1/DTD/svg11.dtd"><svg xmlns:xlink="http://www.w3.org/1999/xlink" version="1.1" class="highcharts-root" style="font-family:arial;font-size:12px;" xmlns="http://www.w3.org/2000/svg" width="485" height="415"><desc>Created with Highstock 5.0.14</desc><defs><clipPath id="highcharts-axqpnq8-6"><rect x="0" y="0" width="282" height="295" fill="none"></rect></clipPath><clipPath id="highcharts-axqpnq8-7"><rect x="0" y="0" width="282" height="295" fill="none"></rect></clipPath></defs><rect fill="#fbfbfb" class="highcharts-background" x="0" y="0" width="485" height="415" rx="0" ry="0"></rect><rect fill="none" class="highcharts-plot-background" x="53" y="55" width="282" height="295"></rect><g class="highcharts-pane-group"></g><g class="highcharts-grid highcharts-xaxis-grid "><path fill="none" class="highcharts-grid-line" d="M 108.5 55 L 108.5 350" opacity="1"></path><path fill="none" class="highcharts-grid-line" d="M 165.5 55 L 165.5 350" opacity="1"></path><path fill="none" class="highcharts-grid-line" d="M 221.5 55 L 221.5 350" opacity="1"></path><path fill="none" class="highcharts-grid-line" d="M 278.5 55 L 278.5 350" opacity="1"></path><path fill="none" class="highcharts-grid-line" d="M 334.5 55 L 334.5 350" opacity="1"></path><path fill="none" class="highcharts-grid-line" d="M 52.5 55 L 52.5 350" opacity="1"></path></g><g class="highcharts-grid highcharts-yaxis-grid "><path fill="none" stroke="#B9CFD7" stroke-width="0.5" class="highcharts-grid-line" d="M 53 350.25 L 335 350.25" opacity="1"></path><path fill="none" stroke="#B9CFD7" stroke-width="0.5" class="highcharts-grid-line" d="M 53 321.25 L 335 321.25" opacity="1"></path><path fill="none" stroke="#B9CFD7" stroke-width="0.5" class="highcharts-grid-line" d="M 53 291.25 L 335 291.25" opacity="1"></path><path fill="none" stroke="#B9CFD7" stroke-width="0.5" class="highcharts-grid-line" d="M 53 262.25 L 335 262.25" opacity="1"></path><path fill="none" stroke="#B9CFD7" stroke-width="0.5" class="highcharts-grid-line" d="M 53 232.25 L 335 232.25" opacity="1"></path><path fill="none" stroke="#B9CFD7" stroke-width="0.5" class="highcharts-grid-line" d="M 53 203.25 L 335 203.25" opacity="1"></path><path fill="none" stroke="#B9CFD7" stroke-width="0.5" class="highcharts-grid-line" d="M 53 173.25 L 335 173.25" opacity="1"></path><path fill="none" stroke="#B9CFD7" stroke-width="0.5" class="highcharts-grid-line" d="M 53 144.25 L 335 144.25" opacity="1"></path><path fill="none" stroke="#B9CFD7" stroke-width="0.5" class="highcharts-grid-line" d="M 53 114.25 L 335 114.25" opacity="1"></path><path fill="none" stroke="#B9CFD7" stroke-width="0.5" class="highcharts-grid-line" d="M 53 85.25 L 335 85.25" opacity="1"></path><path fill="none" stroke="#B9CFD7" stroke-width="0.5" class="highcharts-grid-line" d="M 53 54.75 L 335 54.75" opacity="1"></path></g><rect fill="none" class="highcharts-plot-border" x="53" y="55" width="282" height="295"></rect><g class="highcharts-axis highcharts-xaxis "><path fill="none" class="highcharts-tick" stroke="#FFFFFF" stroke-width="1" d="M 108.5 350 L 108.5 360" opacity="1"></path><path fill="none" class="highcharts-tick" stroke="#FFFFFF" stroke-width="1" d="M 165.5 350 L 165.5 360" opacity="1"></path><path fill="none" class="highcharts-tick" stroke="#FFFFFF" stroke-width="1" d="M 221.5 350 L 221.5 360" opacity="1"></path><path fill="none" class="highcharts-tick" stroke="#FFFFFF" stroke-width="1" d="M 278.5 350 L 278.5 360" opacity="1"></path><path fill="none" class="highcharts-tick" stroke="#FFFFFF" stroke-width="1" d="M 335.5 350 L 335.5 360" opacity="1"></path><path fill="none" class="highcharts-tick" stroke="#FFFFFF" stroke-width="1" d="M 52.5 350 L 52.5 360" opacity="1"></path><path fill="none" class="highcharts-axis-line" stroke="#B9CFD7" stroke-width="0.5" d="M 53 350.25 L 335 350.25"></path></g><g class="highcharts-axis highcharts-yaxis "><path fill="none" class="highcharts-axis-line" d="M 53 55 L 53 350"></path></g><g class="highcharts-series-group"><g class="highcharts-series highcharts-series-0 highcharts-column-series highcharts-color-undefined " transform="translate(53,55) scale(1 1)" clip-path="url(#highcharts-axqpnq8-7)"><rect x="15" y="294" width="28" height="2" fill="#C8C8C8" class="highcharts-point"></rect><rect x="71" y="294" width="28" height="2" fill="#C8C8C8" class="highcharts-point"></rect><rect x="127" y="295" width="28" height="1" fill="#C8C8C8" class="highcharts-point"></rect><rect x="184" y="295" width="28" height="1" fill="#C8C8C8" class="highcharts-point"></rect><rect x="240" y="295" width="28" height="1" fill="#C8C8C8" class="highcharts-point"></rect></g><g class="highcharts-markers highcharts-series-0 highcharts-column-series highcharts-color-undefined " transform="translate(53,55) scale(1 1)" clip-path="none"></g><g class="highcharts-series highcharts-series-1 highcharts-column-series highcharts-color-undefined " transform="translate(53,55) scale(1 1)" clip-path="url(#highcharts-axqpnq8-7)"><rect x="15" y="286" width="28" height="8" fill="#CD9C00" class="highcharts-point"></rect><rect x="71" y="285" width="28" height="9" fill="#CD9C00" class="highcharts-point"></rect><rect x="127" y="289" width="28" height="6" fill="#CD9C00" class="highcharts-point"></rect><rect x="184" y="291" width="28" height="4" fill="#CD9C00" class="highcharts-point"></rect><rect x="240" y="292" width="28" height="3" fill="#CD9C00" class="highcharts-point"></rect></g><g class="highcharts-markers highcharts-series-1 highcharts-column-series highcharts-color-undefined " transform="translate(53,55) scale(1 1)" clip-path="none"></g><g class="highcharts-series highcharts-series-2 highcharts-column-series highcharts-color-undefined " transform="translate(53,55) scale(1 1)" clip-path="url(#highcharts-axqpnq8-7)"><rect x="15" y="245" width="28" height="41" fill="#FABD24" class="highcharts-point"></rect><rect x="71" y="243" width="28" height="42" fill="#FABD24" class="highcharts-point"></rect><rect x="127" y="247" width="28" height="42" fill="#FABD24" class="highcharts-point"></rect><rect x="184" y="263" width="28" height="28" fill="#FABD24" class="highcharts-point"></rect><rect x="240" y="270" width="28" height="22" fill="#FABD24" class="highcharts-point"></rect></g><g class="highcharts-markers highcharts-series-2 highcharts-column-series highcharts-color-undefined " transform="translate(53,55) scale(1 1)" clip-path="none"></g><g class="highcharts-series highcharts-series-3 highcharts-column-series highcharts-color-undefined " transform="translate(53,55) scale(1 1)" clip-path="url(#highcharts-axqpnq8-7)"><rect x="15" y="123" width="28" height="122" fill="#73B97C" class="highcharts-point"></rect><rect x="71" y="111" width="28" height="132" fill="#73B97C" class="highcharts-point"></rect><rect x="127" y="106" width="28" height="141" fill="#73B97C" class="highcharts-point"></rect><rect x="184" y="145" width="28" height="118" fill="#73B97C" class="highcharts-point"></rect><rect x="240" y="148" width="28" height="122" fill="#73B97C" class="highcharts-point"></rect></g><g class="highcharts-markers highcharts-series-3 highcharts-column-series highcharts-color-undefined " transform="translate(53,55) scale(1 1)" clip-path="none"></g><g class="highcharts-series highcharts-series-4 highcharts-column-series highcharts-color-undefined " transform="translate(53,55) scale(1 1)" clip-path="url(#highcharts-axqpnq8-7)"><rect x="15" y="0" width="28" height="123" fill="#007A2F" class="highcharts-point"></rect><rect x="71" y="0" width="28" height="111" fill="#007A2F" class="highcharts-point"></rect><rect x="127" y="0" width="28" height="106" fill="#007A2F" class="highcharts-point"></rect><rect x="184" y="0" width="28" height="145" fill="#007A2F" class="highcharts-point"></rect><rect x="240" y="0" width="28" height="148" fill="#007A2F" class="highcharts-point"></rect></g><g class="highcharts-markers highcharts-series-4 highcharts-column-series highcharts-color-undefined " transform="translate(53,55) scale(1 1)" clip-path="none"></g></g><text x="10" text-anchor="start" class="highcharts-title" style="color:#000000;font-size:14px;font-weight:bold;fill:#000000;" y="21"><tspan>Zufriedenheit mit Grünanlagen und Parks am Wohnort</tspan></text><text x="10" text-anchor="start" class="highcharts-subtitle" style="color:#000000;font-size:12px;fill:#000000;" y="40"><tspan>«Wie zufrieden sind Sie mit den Grünanlagen und Parks in Ihrem Wohnort?»</tspan></text><g class="highcharts-legend" transform="translate(347,137)"><rect fill="none" class="highcharts-legend-box" rx="0" ry="0" x="0" y="0" width="128" height="121" visibility="visible"></rect><g><g><g class="highcharts-legend-item highcharts-column-series highcharts-color-undefined highcharts-series-4" transform="translate(8,3)"><text x="21" style="color:#333333;font-size:12px;font-weight:normal;cursor:pointer;fill:#333333;" text-anchor="start" y="15"><tspan>Sehr zufrieden</tspan></text><rect x="2" y="4" width="12" height="12" fill="#007A2F" class="highcharts-point"></rect></g><g class="highcharts-legend-item highcharts-column-series highcharts-color-undefined highcharts-series-3" transform="translate(8,22)"><text x="21" y="15" style="color:#333333;font-size:12px;font-weight:normal;cursor:pointer;fill:#333333;" text-anchor="start"><tspan>Eher zufrieden</tspan></text><rect x="2" y="4" width="12" height="12" fill="#73B97C" class="highcharts-point"></rect></g><g class="highcharts-legend-item highcharts-column-series highcharts-color-undefined highcharts-series-2" transform="translate(8,41)"><text x="21" y="15" style="color:#333333;font-size:12px;font-weight:normal;cursor:pointer;fill:#333333;" text-anchor="start"><tspan>Eher unzufrieden</tspan></text><rect x="2" y="4" width="12" height="12" fill="#FABD24" class="highcharts-point"></rect></g><g class="highcharts-legend-item highcharts-column-series highcharts-color-undefined highcharts-series-1" transform="translate(8,60)"><text x="21" y="15" style="color:#333333;font-size:12px;font-weight:normal;cursor:pointer;fill:#333333;" text-anchor="start"><tspan>Sehr unzufrieden</tspan></text><rect x="2" y="4" width="12" height="12" fill="#CD9C00" class="highcharts-point"></rect></g><g class="highcharts-legend-item highcharts-column-series highcharts-color-undefined highcharts-series-0" transform="translate(8,79)"><text x="21" y="15" style="color:#333333;font-size:12px;font-weight:normal;cursor:pointer;fill:#333333;" text-anchor="start"><tspan>Weiss nicht/</tspan><tspan x="21" dy="15">Keine Angabe</tspan></text><rect x="2" y="4" width="12" height="12" fill="#C8C8C8" class="highcharts-point"></rect></g></g></g></g><g class="highcharts-axis-labels highcharts-xaxis-labels "><text x="81.2" style="color:#000000;cursor:default;font-size:11px;fill:#000000;" text-anchor="middle" transform="translate(0,0)" y="369" opacity="1"><tspan>2003</tspan><tspan x="81.2" dy="14">(N=1495)</tspan></text><text x="137.60000000000002" style="color:#000000;cursor:default;font-size:11px;fill:#000000;" text-anchor="middle" transform="translate(0,0)" y="369" opacity="1"><tspan>2005</tspan><tspan x="137.60000000000002" dy="14">(N=1509)</tspan></text><text x="194" style="color:#000000;cursor:default;font-size:11px;fill:#000000;" text-anchor="middle" transform="translate(0,0)" y="369" opacity="1"><tspan>2007</tspan><tspan x="194" dy="14">(N=1505)</tspan></text><text x="250.40000000000003" style="color:#000000;cursor:default;font-size:11px;fill:#000000;" text-anchor="middle" transform="translate(0,0)" y="369" opacity="1"><tspan>2011</tspan><tspan x="250.40000000000003" dy="14">(N=1516)</tspan></text><text x="306.8" style="color:#000000;cursor:default;font-size:11px;fill:#000000;" text-anchor="middle" transform="translate(0,0)" y="369" opacity="1"><tspan>2015</tspan><tspan x="306.8" dy="14">(N=1504)</tspan></text></g><g class="highcharts-axis-labels highcharts-yaxis-labels "><text x="38" style="color:#000000;cursor:default;font-size:11px;fill:#000000;" text-anchor="end" transform="translate(0,0)" y="355" opacity="1"><tspan>0%</tspan></text><text x="38" style="color:#000000;cursor:default;font-size:11px;fill:#000000;" text-anchor="end" transform="translate(0,0)" y="325" opacity="1"><tspan>10%</tspan></text><text x="38" style="color:#000000;cursor:default;font-size:11px;fill:#000000;" text-anchor="end" transform="translate(0,0)" y="296" opacity="1"><tspan>20%</tspan></text><text x="38" style="color:#000000;cursor:default;font-size:11px;fill:#000000;" text-anchor="end" transform="translate(0,0)" y="266" opacity="1"><tspan>30%</tspan></text><text x="38" style="color:#000000;cursor:default;font-size:11px;fill:#000000;" text-anchor="end" transform="translate(0,0)" y="237" opacity="1"><tspan>40%</tspan></text><text x="38" style="color:#000000;cursor:default;font-size:11px;fill:#000000;" text-anchor="end" transform="translate(0,0)" y="207" opacity="1"><tspan>50%</tspan></text><text x="38" style="color:#000000;cursor:default;font-size:11px;fill:#000000;" text-anchor="end" transform="translate(0,0)" y="178" opacity="1"><tspan>60%</tspan></text><text x="38" style="color:#000000;cursor:default;font-size:11px;fill:#000000;" text-anchor="end" transform="translate(0,0)" y="148" opacity="1"><tspan>70%</tspan></text><text x="38" style="color:#000000;cursor:default;font-size:11px;fill:#000000;" text-anchor="end" transform="translate(0,0)" y="119" opacity="1"><tspan>80%</tspan></text><text x="38" style="color:#000000;cursor:default;font-size:11px;fill:#000000;" text-anchor="end" transform="translate(0,0)" y="89" opacity="1"><tspan>90%</tspan></text><text x="38" style="color:#000000;cursor:default;font-size:11px;fill:#000000;" text-anchor="end" transform="translate(0,0)" y="60" opacity="1"><tspan>100%</tspan></text></g><text x="10" class="highcharts-credits" text-anchor="start" style="cursor:default;color:#000000;font-size:10px;fill:#000000;" y="400"><tspan>Quelle: Statistisches Amt Basel-Stadt, kantonale Bevölkerungsbefragung: F6_7</tspan></text></svg>

<svg class="highcharts-root" xmlns="http://www.w3.org/2000/svg" width="485" height="415" font-family="arial" font-size="12">
    <defs>
        <clipPath id="a">
            <path fill="none" d="M0 0h282v295H0z"/>
        </clipPath>
    </defs>
    <rect fill="#fbfbfb" class="highcharts-background" width="485" height="415" rx="0" ry="0"/>
    <path fill="none" class="highcharts-plot-background" d="M53 55h282v295H53z"/>
    <g class="highcharts-grid highcharts-xaxis-grid">
        <path fill="none" class="highcharts-grid-line" d="M108.5 55v295m57-295v295m56-295v295m57-295v295m56-295v295M52.5 55v295"/>
    </g>
    <g class="highcharts-grid highcharts-yaxis-grid">
        <path fill="none" stroke="#B9CFD7" stroke-width=".5" class="highcharts-grid-line" d="M53 350.25h282m-282-29h282m-282-30h282m-282-29h282m-282-30h282m-282-29h282m-282-30h282m-282-29h282m-282-30h282m-282-29h282M53 54.75h282"/>
    </g>
    <path fill="none" class="highcharts-plot-border" d="M53 55h282v295H53z"/>
    <g class="highcharts-axis highcharts-xaxis">
        <path fill="none" class="highcharts-tick" stroke="#FFF" d="M108.5 350v10m57-10v10m56-10v10m57-10v10m57-10v10m-283-10v10"/>
        <path fill="none" class="highcharts-axis-line" stroke="#B9CFD7" stroke-width=".5" d="M53 350.25h282"/>
    </g>
    <g class="highcharts-axis highcharts-yaxis">
        <path fill="none" class="highcharts-axis-line" d="M53 55v295"/>
    </g>
    <g class="highcharts-series-group">
        <g class="highcharts-series highcharts-series-0 highcharts-column-series highcharts-color-undefined" transform="translate(53 55)" clip-path="url(#a)">
            <path fill="#C8C8C8" class="highcharts-point" d="M15 294h28v2H15zm56 0h28v2H71zm56 1h28v1h-28zm57 0h28v1h-28zm56 0h28v1h-28z"/>
        </g>
        <g class="highcharts-series highcharts-series-1 highcharts-column-series highcharts-color-undefined" transform="translate(53 55)" clip-path="url(#a)">
            <path fill="#CD9C00" class="highcharts-point" d="M15 286h28v8H15zm56-1h28v9H71zm56 4h28v6h-28zm57 2h28v4h-28zm56 1h28v3h-28z"/>
        </g>
        <g class="highcharts-series highcharts-series-2 highcharts-column-series highcharts-color-undefined" transform="translate(53 55)" clip-path="url(#a)">
            <path fill="#FABD24" class="highcharts-point" d="M15 245h28v41H15zm56-2h28v42H71zm56 4h28v42h-28zm57 16h28v28h-28zm56 7h28v22h-28z"/>
        </g>
        <g class="highcharts-series highcharts-series-3 highcharts-column-series highcharts-color-undefined" transform="translate(53 55)" clip-path="url(#a)">
            <path fill="#73B97C" class="highcharts-point" d="M15 123h28v122H15zm56-12h28v132H71zm56-5h28v141h-28zm57 39h28v118h-28zm56 3h28v122h-28z"/>
        </g>
        <g class="highcharts-series highcharts-series-4 highcharts-column-series highcharts-color-undefined" transform="translate(53 55)" clip-path="url(#a)">
            <path fill="#007A2F" class="highcharts-point" d="M15 0h28v123H15zm56 0h28v111H71zm56 0h28v106h-28zm57 0h28v145h-28zm56 0h28v148h-28z"/>
        </g>
    </g>
    <text x="10" class="highcharts-title" y="21" color="#000" font-size="14" font-weight="700">
        <tspan>Zufriedenheit mit Grünanlagen und Parks am Wohnort</tspan>
    </text>
    <text x="10" class="highcharts-subtitle" y="40" color="#000">
        <tspan>«Wie zufrieden sind Sie mit den Grünanlagen und Parks in Ihrem Wohnort?»</tspan>
    </text>
    <g class="highcharts-legend" transform="translate(347 137)">
        <rect fill="none" class="highcharts-legend-box" rx="0" ry="0" width="128" height="121"/>
        <g class="highcharts-legend-item highcharts-column-series highcharts-color-undefined highcharts-series-4">
            <text x="21" y="15" color="#333" font-weight="400" cursor="pointer" fill="#333" transform="translate(8 3)">
                <tspan>Sehr zufrieden</tspan>
            </text>
            <path fill="#007A2F" class="highcharts-point" d="M10 7h12v12H10z"/>
        </g>
        <g class="highcharts-legend-item highcharts-column-series highcharts-color-undefined highcharts-series-3">
            <text x="21" y="15" color="#333" font-weight="400" cursor="pointer" fill="#333" transform="translate(8 22)">
                <tspan>Eher zufrieden</tspan>
            </text>
            <path fill="#73B97C" class="highcharts-point" d="M10 26h12v12H10z"/>
        </g>
        <g class="highcharts-legend-item highcharts-column-series highcharts-color-undefined highcharts-series-2">
            <text x="21" y="15" color="#333" font-weight="400" cursor="pointer" fill="#333" transform="translate(8 41)">
                <tspan>Eher unzufrieden</tspan>
            </text>
            <path fill="#FABD24" class="highcharts-point" d="M10 45h12v12H10z"/>
        </g>
        <g class="highcharts-legend-item highcharts-column-series highcharts-color-undefined highcharts-series-1">
            <text x="21" y="15" color="#333" font-weight="400" cursor="pointer" fill="#333" transform="translate(8 60)">
                <tspan>Sehr unzufrieden</tspan>
            </text>
            <path fill="#CD9C00" class="highcharts-point" d="M10 64h12v12H10z"/>
        </g>
        <g class="highcharts-legend-item highcharts-column-series highcharts-color-undefined highcharts-series-0">
            <text x="21" y="15" color="#333" font-weight="400" cursor="pointer" fill="#333" transform="translate(8 79)">
                <tspan>Weiss nicht/</tspan><tspan x="21" dy="15">Keine Angabe</tspan>
            </text>
            <path fill="#C8C8C8" class="highcharts-point" d="M10 83h12v12H10z"/>
        </g>
    </g>
    <g class="highcharts-axis-labels highcharts-xaxis-labels" text-anchor="middle" color="#000" cursor="default" font-size="11">
        <text x="81.2" y="369">
            <tspan>2003</tspan><tspan x="81.2" dy="14">(N=1495)</tspan>
        </text>
        <text x="137.6" y="369">
            <tspan>2005</tspan><tspan x="137.6" dy="14">(N=1509)</tspan>
        </text>
        <text x="194" y="369">
            <tspan>2007</tspan><tspan x="194" dy="14">(N=1505)</tspan>
        </text>
        <text x="250.4" y="369">
            <tspan>2011</tspan><tspan x="250.4" dy="14">(N=1516)</tspan>
        </text>
        <text x="306.8" y="369">
            <tspan>2015</tspan><tspan x="306.8" dy="14">(N=1504)</tspan>
        </text>
    </g>
    <g class="highcharts-axis-labels highcharts-yaxis-labels" text-anchor="end" color="#000" cursor="default" font-size="11">
        <text x="38" y="355">
            <tspan>0%</tspan>
        </text>
        <text x="38" y="325">
            <tspan>10%</tspan>
        </text>
        <text x="38" y="296">
            <tspan>20%</tspan>
        </text>
        <text x="38" y="266">
            <tspan>30%</tspan>
        </text>
        <text x="38" y="237">
            <tspan>40%</tspan>
        </text>
        <text x="38" y="207">
            <tspan>50%</tspan>
        </text>
        <text x="38" y="178">
            <tspan>60%</tspan>
        </text>
        <text x="38" y="148">
            <tspan>70%</tspan>
        </text>
        <text x="38" y="119">
            <tspan>80%</tspan>
        </text>
        <text x="38" y="89">
            <tspan>90%</tspan>
        </text>
        <text x="38" y="60">
            <tspan>100%</tspan>
        </text>
    </g>
    <text x="10" class="highcharts-credits" y="400" cursor="default" color="#000" font-size="10">
        <tspan>Quelle: Statistisches Amt Basel-Stadt, kantonale Bevölkerungsbefragung: F6_7</tspan>
    </text>
</svg>
